src/pages/screens/Techs/images/frontend/React.svg

<svg width="32" height="28" viewBox="0 0 32 28" fill="none" xmlns="http://www.w3.org/2000/svg">
<path d="M26.3104 9.06608C25.9698 8.95129 25.6264 8.84495 25.2804 8.74715C25.3385 8.51382 25.392 8.28331 25.4395 8.05686C26.2193 4.33814 25.7095 1.34226 23.9684 0.355873C22.299 -0.589741 19.5689 0.396277 16.8116 2.7538C16.5399 2.98656 16.2742 3.22603 16.0147 3.47198C15.8411 3.30843 15.6643 3.14806 15.4846 2.99094C12.5949 0.470207 9.69837 -0.592197 7.95913 0.397014C6.29125 1.34558 5.79737 4.16191 6.49937 7.68623C6.56922 8.03527 6.64808 8.38252 6.73588 8.72763C6.32588 8.84208 5.93025 8.96391 5.55162 9.09359C2.16362 10.2541 0 12.0728 0 13.9592C0 15.9075 2.32275 17.8618 5.8515 19.0467C6.13758 19.1424 6.42605 19.2311 6.71663 19.3126C6.62225 19.6843 6.53847 20.0585 6.46537 20.4348C5.79612 23.898 6.31875 26.6478 7.98212 27.5903C9.70012 28.5637 12.5836 27.5633 15.3912 25.152C15.6189 24.9559 15.8416 24.7543 16.059 24.5474C16.3399 24.8137 16.6284 25.0723 16.924 25.3228C19.6437 27.622 22.3298 28.5504 23.9915 27.6053C25.7079 26.6291 26.2658 23.6751 25.5415 20.0811C25.4844 19.7996 25.4205 19.5194 25.3496 19.2409C25.5521 19.1819 25.7509 19.1213 25.9446 19.0582C29.6131 17.8641 32 15.9336 32 13.9592C32 12.0659 29.7665 10.235 26.3104 9.06608ZM25.5147 17.7834C25.3398 17.8403 25.1602 17.8952 24.9772 17.9486C24.5722 16.689 24.0257 15.3496 23.3569 13.9657C23.9951 12.6148 24.5206 11.2926 24.9142 10.0412C25.2416 10.1343 25.5592 10.2324 25.8655 10.3359C28.8267 11.3375 30.633 12.8182 30.633 13.9592C30.633 15.1745 28.6822 16.7522 25.5147 17.7834ZM24.2005 20.342C24.5208 21.9311 24.5664 23.3679 24.3542 24.4913C24.1637 25.5006 23.7805 26.1735 23.3065 26.443C22.2981 27.0165 20.1415 26.2711 17.8156 24.3047C17.5407 24.0718 17.2724 23.8314 17.011 23.5838C17.9128 22.615 18.8139 21.4888 19.6934 20.2378C21.2404 20.103 22.7019 19.8824 24.0273 19.5814C24.0925 19.8402 24.1505 20.0939 24.2005 20.342ZM10.9095 26.3439C9.92425 26.6857 9.1395 26.6955 8.66512 26.4268C7.65575 25.8549 7.23612 23.647 7.8085 20.6854C7.87654 20.3354 7.95444 19.9873 8.04212 19.6416C9.35287 19.9265 10.8038 20.1314 12.3544 20.2549C13.2399 21.4789 14.167 22.604 15.1014 23.5891C14.9028 23.7779 14.6995 23.9618 14.4917 24.1408C13.2501 25.207 12.006 25.9635 10.9095 26.3439ZM6.29375 17.7759C4.73337 17.2519 3.44475 16.5709 2.5615 15.8278C1.76775 15.1601 1.36713 14.4971 1.36713 13.9592C1.36713 12.8144 3.10425 11.3542 6.00163 10.3618C6.35325 10.2415 6.72125 10.1279 7.10313 10.0213C7.50362 11.3009 8.02888 12.6389 8.66275 13.9919C8.02063 15.3649 7.48787 16.7242 7.0835 18.019C6.81826 17.9443 6.55493 17.8633 6.29375 17.7759ZM7.841 7.42821C7.23962 4.40875 7.639 2.13105 8.64412 1.55938C9.71463 0.950505 12.0819 1.81863 14.577 3.99526C14.7397 4.13752 14.8998 4.28266 15.0571 4.43061C14.1274 5.41147 13.2087 6.52815 12.3311 7.74493C10.8261 7.88198 9.3855 8.10205 8.061 8.39691C7.9794 8.07592 7.90604 7.75295 7.841 7.42833V7.42821ZM21.6444 10.7769C21.3315 10.246 21.0071 9.72178 20.6712 9.20461C21.6922 9.33147 22.6705 9.49984 23.5891 9.70566C23.3134 10.5742 22.9696 11.4821 22.565 12.4129C22.2692 11.8616 21.9623 11.3162 21.6444 10.7769ZM16.0154 5.39047C16.6459 6.06161 17.2774 6.81086 17.8985 7.62384C16.6385 7.56538 15.3764 7.56513 14.1164 7.6231C14.7381 6.81761 15.375 6.06935 16.0154 5.39047ZM10.3503 10.7861C10.0363 11.321 9.73509 11.8631 9.44687 12.4118C9.04887 11.4843 8.70825 10.5722 8.43013 9.69142C9.34313 9.49075 10.3168 9.32668 11.3313 9.20216C10.9917 9.72249 10.6646 10.2506 10.3503 10.786V10.7861ZM11.3604 18.8118C10.3123 18.6969 9.324 18.5413 8.41125 18.346C8.69375 17.4495 9.04187 16.518 9.4485 15.5706C9.73785 16.1197 10.0403 16.6621 10.3556 17.1973C10.6799 17.7474 11.0156 18.2863 11.3604 18.8118ZM16.0531 22.6225C15.4051 21.9358 14.7589 21.176 14.1278 20.3588C14.7405 20.3824 15.3651 20.3944 16 20.3944C16.6523 20.3944 17.297 20.3801 17.9316 20.3523C17.3085 21.1842 16.6794 21.9451 16.0531 22.6225ZM22.5779 15.5222C23.0056 16.4801 23.3661 17.4066 23.6524 18.2878C22.7246 18.4958 21.7229 18.6633 20.6674 18.7877C21.0056 18.261 21.3331 17.7276 21.6497 17.1881C21.9717 16.6396 22.2811 16.0842 22.5779 15.5222ZM20.4656 16.517C19.9809 17.3443 19.4689 18.1559 18.9305 18.9505C17.9552 19.0183 16.9777 19.052 16 19.0515C15.0041 19.0515 14.0355 19.0211 13.1027 18.9616C12.5503 18.1689 12.0285 17.3559 11.5386 16.5244H11.5387C11.0511 15.6973 10.5957 14.8523 10.1734 13.9913C10.5946 13.13 11.0487 12.2846 11.5346 11.4569L11.5345 11.457C12.0202 10.6291 12.5378 9.81956 13.0861 9.03022C14.0378 8.95949 15.0136 8.92265 15.9999 8.92265H16C16.9907 8.92265 17.9679 8.95986 18.9193 9.03109C19.462 9.81924 19.9763 10.626 20.4611 11.4498C20.9487 12.2757 21.4088 13.1169 21.8406 13.9722C21.4132 14.8363 20.9546 15.6851 20.4656 16.517ZM23.2856 1.51935C24.3571 2.12651 24.7739 4.57491 24.1006 7.7857C24.0576 7.99054 24.0094 8.19919 23.9569 8.41079C22.6291 8.10966 21.1875 7.88579 19.6781 7.74665C18.7989 6.51649 17.8878 5.39808 16.9731 4.42987C17.2128 4.20287 17.4582 3.98175 17.7091 3.76672C20.0716 1.74691 22.2796 0.9494 23.2856 1.51935ZM16 11.1518C17.5781 11.1518 18.8575 12.4088 18.8575 13.9592C18.8575 15.5096 17.5781 16.7666 16 16.7666C14.4219 16.7666 13.1425 15.5096 13.1425 13.9592C13.1425 12.4088 14.4219 11.1518 16 11.1518Z" fill="#00D8FF"/>
</svg>

<svg width="32" height="28" fill="none" xmlns="http://www.w3.org/2000/svg"><path d="M26.31 9.066c-.34-.115-.684-.221-1.03-.319.058-.233.112-.464.16-.69.78-3.719.27-6.715-1.472-7.701-1.669-.946-4.4.04-7.156 2.398-.272.233-.538.472-.797.718-.174-.164-.35-.324-.53-.481C12.595.47 9.698-.592 7.959.397c-1.668.949-2.162 3.765-1.46 7.29.07.348.15.696.237 1.04-.41.115-.806.237-1.184.367C2.164 10.254 0 12.073 0 13.959c0 1.949 2.323 3.903 5.851 5.088.287.095.575.184.866.266-.095.371-.179.745-.252 1.122-.669 3.463-.146 6.213 1.517 7.155 1.718.974 4.602-.027 7.41-2.438.227-.196.45-.398.667-.605.28.267.57.525.865.776 2.72 2.299 5.406 3.227 7.067 2.282 1.717-.976 2.275-3.93 1.55-7.524a17.535 17.535 0 0 0-.191-.84c.202-.06.4-.12.595-.183C29.613 17.864 32 15.934 32 13.96c0-1.893-2.233-3.724-5.69-4.893zm-.795 8.717a18.41 18.41 0 0 1-.538.166 31.196 31.196 0 0 0-1.62-3.983 31.17 31.17 0 0 0 1.557-3.925c.328.093.645.191.951.295 2.962 1.002 4.768 2.482 4.768 3.623 0 1.216-1.95 2.793-5.118 3.824zM24.2 20.342c.32 1.59.365 3.026.153 4.15-.19 1.009-.573 1.681-1.047 1.951-1.009.573-3.165-.172-5.491-2.138a19.497 19.497 0 0 1-.805-.721 31.61 31.61 0 0 0 2.682-3.346 32.428 32.428 0 0 0 4.334-.657c.066.26.123.513.174.761zm-13.292 6.002c-.985.342-1.77.351-2.244.083-1.01-.572-1.429-2.78-.856-5.742.068-.35.145-.698.233-1.043 1.31.285 2.762.49 4.312.613a32.815 32.815 0 0 0 2.747 3.334c-.198.189-.402.373-.61.552-1.24 1.066-2.485 1.823-3.582 2.203zm-4.615-8.568c-1.56-.524-2.85-1.205-3.732-1.948-.794-.668-1.195-1.33-1.195-1.869 0-1.145 1.737-2.605 4.635-3.597.351-.12.72-.234 1.101-.34.4 1.279.926 2.617 1.56 3.97a32.364 32.364 0 0 0-1.58 4.027 17.074 17.074 0 0 1-.79-.243zM7.84 7.428c-.601-3.02-.202-5.297.803-5.869 1.07-.608 3.438.26 5.933 2.436.163.143.323.288.48.436-.93.98-1.848 2.097-2.726 3.314a33.951 33.951 0 0 0-4.27.652 19.401 19.401 0 0 1-.22-.969zm13.803 3.349a42.56 42.56 0 0 0-.973-1.572c1.021.126 2 .295 2.918.5a28.34 28.34 0 0 1-1.024 2.708 46.72 46.72 0 0 0-.92-1.636zM16.015 5.39c.63.672 1.262 1.42 1.883 2.234a40.974 40.974 0 0 0-3.782 0 29.748 29.748 0 0 1 1.9-2.234zm-5.665 5.396a39.442 39.442 0 0 0-.903 1.626 29.308 29.308 0 0 1-1.017-2.72c.913-.201 1.887-.365 2.901-.49a39.3 39.3 0 0 0-.98 1.584zm1.01 8.026a29.55 29.55 0 0 1-2.949-.466c.283-.896.63-1.828 1.037-2.775a39.29 39.29 0 0 0 1.912 3.24zm4.693 3.81a30.22 30.22 0 0 1-1.925-2.263c.613.023 1.237.035 1.872.035.652 0 1.297-.014 1.932-.042a28.66 28.66 0 0 1-1.879 2.27zm6.525-7.1a28.2 28.2 0 0 1 1.074 2.766c-.927.208-1.93.375-2.985.5.339-.527.666-1.06.983-1.6.322-.548.631-1.104.928-1.666zm-2.112.995a43.907 43.907 0 0 1-1.536 2.434c-.975.067-1.952.101-2.93.1-.996 0-1.964-.03-2.897-.09a37.534 37.534 0 0 1-2.93-4.97 37.634 37.634 0 0 1 2.913-4.961 39.172 39.172 0 0 1 5.833 0 40.35 40.35 0 0 1 1.542 2.42 43.7 43.7 0 0 1 1.38 2.522 40.14 40.14 0 0 1-1.375 2.545zm2.82-14.998c1.071.608 1.488 3.056.815 6.267-.043.205-.092.413-.144.625a33.268 33.268 0 0 0-4.279-.664 31.631 31.631 0 0 0-2.705-3.317c.24-.227.485-.448.736-.663 2.363-2.02 4.57-2.818 5.577-2.248zM16 11.152c1.578 0 2.858 1.257 2.858 2.807s-1.28 2.808-2.858 2.808-2.857-1.257-2.857-2.808c0-1.55 1.279-2.807 2.857-2.807z" fill="#00D8FF"/></svg>
